X:1
T:Echoes of Bethlehem
T:Echoes of Bethlehem
T:J. Howard Entwisle
T:J. Howard Entwisle, 1900
T:Public Domain Courtesy of the Cyber Hymnal™
T:Public Domain Courtesy of the Cyber Hymnal™
C:J. Howard Entwisle
Z:Public Domain
Z:Courtesy of the Cyber Hymnal™
%%score ( 1 2 ) ( 3 4 )
L:1/8
Q:1/4=103
M:6/8
K:Ab
V:1 treble 
V:2 treble 
V:3 bass 
V:4 bass 
V:1
 [CE] | [DE]2 [DE] [DF]2 [DE] | [CE]2 [Ec] [EB]2 [EA] | [EG]2 [EG] (GA)[EB] | [EA]3- [EA]2 [CE] | %5
w: 1.~Ring|out, ye bells, your|mer- ry lay, Ring|sweet- ly on * the|ear; * Ring|
w: 2.~Ring|out a- new the|an- gel’s song Of|“Peace, good- will * to|men”; * The|
w: 3.~Peal|on, ye bells, up-|on the ear Your|mu- sic floats * to-|day, * And|
 [DF]2 [DF] [DA]2 [DF] | [CE]3 [EA]2 [EB] | [Ec]2 [Ec] (cB)[_DA] | ([EB-]3 [DB]2) z | %9
w: out with notes of|glad- ness That|all the world * may|hear; *|
w: song of heav’n- ly|sweet- ness That|rang o’er Beth- * le-|hem. *|
w: wait- ing hearts re-|e- cho Your|song with mer- * ry|lay; *|
 [CE]2 [CA] [=B,G]2 [B,F] | [=B,F]3 [CE]2 E | [DF]2 [A,F] [B,F]2 [=B,F] | [C=E]3- [CE]2 C | %13
w: Tell the bless- èd|sto- ry Of|how the brill- iant|star * Ar-|
w: Peal the joy- ous|ac- cents The|sac- red song of|old, * While|
w: While the hills of|Ju- dah Send|back the glad re-|ply, * And|
 F2 G A2 G | A2 B c2 [Ac] | [A=d]2 [Ad] (dc)[Ad] | [Ge]3- [Ge]2 z || %17
w: rayed the path in|floods of light For|shep- herds from * a-|far. *|
w: all the arch- es|of the sky Their|beau- ties rare * un-|fold. *|
w: greet with sac- red|mel- o- dy The|Day- spring from * on|high. *|
[M:6/4]"^Refrain"[Q:1/4=135] (z2 [G,D]2 [G,D]2) (z2 [G,D]2) [DEG]2 | %18
w: |
w: * * * Ring|
w: |
 z2 [CE]2 [CE]2 (z2 [EAc]2) [EAc]2 | z2 [DEG]2 [DE=A]2 (z2 [DEG]2) [DEGc]2 | %20
w: ||
w: * * * out|* the * tid-|
w: ||
 z2 [CE]2 [CE]2 z2 [CE]2 [CE]2 | z2 [A,D]2 [A,D]2 (z2 [A,D]2) [A,DA]2 | %22
w: ||
w: |* * * ings,|
w: ||
 z2 [A,C]2 [A,C]2 (z2 [CE]2) [EAc]2 | z2 [=DA]2 [DA]2 (z2 [DA]2) [DA]2 | %24
w: ||
w: * * * the|* * * Sav-|
w: ||
 z2 [DEG]2 [DEG]2 z2 [DEG]2 [DEG]2 | z2 [G,D]2 [G,D]2 (z2 [G,D]2) [DEG]2 | %26
w: ||
w: |* * * ior|
w: ||
 z2 [CE]2 [CE]2 (z2 [EA]2) [EGc]2 | z2 [DF]2 [DF]2 (z2 [DF]2) [DFB]2 | %28
w: ||
w: * * * now|* * * is|
w: ||
 z2 [=EGB]2 [EGB]2 z2 [EGB]2 [EGB]2 | z2 [EF=A]2 [EFA]2 (z2 [EFA]2) [EFAc]2 | %30
w: ||
w: |* * * born,|
w: ||
 z2 [=DA]2 [DA]2 (z2 [DA]2) [DF]2 | z2 [DE]2 [DE]2 [DE]4 [DEGB]2 | A12 |] %33
w: |||
w: * * * Go|* swell the chor-||
w: |||
V:2
 x | x6 | x6 | x3 E2 x | x6 | x6 | x6 | x3 =D2 x | x6 | x6 | x5 E | x6 | x5 C | F2 G A2 G | %14
 A2 B c2 x | x3 A2 x | x6 ||[M:6/4] E6 A4 x2 | A4 e4 x4 | B4 B4 x4 | A6- A6 | F6 G4 x2 | E6 A4 x2 | %23
 c6 B4 x2 | B6- B6 | E6 F4 x2 | A6 e4 x2 | B6 A4 x2 | c6- c6 | c6 d4 x2 | c6 B4 x2 | G6 x6 | %32
 (C4 D2 C6) |] %33
V:3
 A, | [E,G,]2 [E,G,] [E,G,]2 [E,G,] | A,2 A, [A,D]2 [A,C] | [E,B,]2 [E,B,] [E,D]2 [E,D] | %4
 [A,,C]3- [A,,C]2 [A,,A,] | [D,A,]2 [D,A,] [D,F,]2 [D,A,] | [A,,A,]3 [C,A,]2 [E,G,] | %7
 A,2 A, [F,A,]2 [F,A,] | [E,G,]3- [E,G,]2 z | [A,,A,]2 [A,,E,] [A,,=D,]2 [A,,D,] | %10
 [A,,=D,]3 [A,,E,]2 [C,A,] | [D,A,]2 D, [D,F,]2 [D,F,] | [C,G,]3- [C,G,]2 C, | F,2 G, A,2 G, | %14
 A,2 B, C2 F, | [F,B,]2 [F,B,] [B,,B,]2 [B,,B,] | ([E,-B,]3 [E,D]2) z ||[M:6/4] [E,,E,]12 | A,,12 | %19
 [E,,G,]12 | A,,12 | [D,,D,]12 | [C,,C,]6 A,,6 | [B,,,B,,]12 | [E,,E,]12 | [E,,E,]12 | A,,12 | %27
 [D,,F,]12 | [C,,C,]12 | [F,,F,]12 | B,,12 | [E,,E,]6 [E,G,]4 [E,G,]2 | A,4 F,2 E,6 |] %33
V:4
 A, | x6 | A,2 A, x3 | x6 | x6 | x6 | x6 | A,2 A, x3 | x6 | x6 | x6 | x2 D, x3 | x5 C, | %13
 F,2 G, A,2 G, | A,2 B, C2 F, | x6 | x6 ||[M:6/4] x12 | x12 | x12 | x12 | x12 | x12 | x12 | x12 | %25
 x12 | x12 | x12 | x12 | x12 | x12 | x12 | A,,12 |] %33

